X: 47
T: No_147_I_Am_as_Brave_as_Other_Men.krn
N: Derived from No_147_I_Am_as_Brave_as_Other_Men.krn
%%abc-version 2.0
%%abcx-abcm2ps-target-version 5.9.1 (29 Sep 2008)
%%abc-creator hum2abc beta
%%abcx-conversion-date 2019/03/15 08:29:13
%%humdrum-veritas 1468540433
%%humdrum-veritas-data 4145727170
%%linebreak <none>
%%barnumbers 0
L: 1/8
M: 2/4
K: C clef=bass
[K:clef=bass][M:2/4]D2D2 | 
^C2=C2 | 
A,2A,C- | 
CA, A,3/C/ | 
A,A, A,A, ||  
[M:3/4]A,6 | 
A,A, A,A, A,G, | 
{/_B,} G,G, F,F,D,2 | 
D,E, F,D,D,2 | 
{/F,} D,D, C,C,C,2 | 
D,D, D,D, C,/C,/C,/C,/ | 
A,,A,,A,,4 | 
A,,6 |]  



